X: 938
T: The One Legged Man.
B:O'Neill's 938
Z:Transcribed by Tom Keays (htkeays@mailbox.syr.edu)
Z:abc 1.6
M:6/8
R:Jig
L:1/8
K:D
d/B/ |: AFA DFA | DFA DFA | AFA DFA | DFA Bcd |
AFA DFA | DFA DFA | def gea | fdB Bcd :|
|| def a2 f | b2 g a2 f | def a2 f | afd edB |
def a2 f | b2 g a2 f | def gea | fdB Bcd :|


